icons/category__second-image.svg

<svg width="56" height="56" viewBox="0 0 56 56" fill="none" xmlns="http://www.w3.org/2000/svg">
    <circle cx="28" cy="28" r="28" fill="#FCB72B" />
    <path
        d="M26.2909 36.3423C26.1639 36.3423 26.0396 36.3939 25.9499 36.4836C25.8602 36.5733 25.8086 36.6978 25.8086 36.8246C25.8086 36.9514 25.8602 37.076 25.9499 37.1657C26.0396 37.2553 26.1639 37.307 26.2909 37.307C26.4177 37.307 26.5421 37.2553 26.632 37.1657C26.7217 37.076 26.7733 36.952 26.7733 36.8246C26.7733 36.6978 26.7217 36.5733 26.632 36.4836C26.5421 36.3939 26.4177 36.3423 26.2909 36.3423Z"
        fill="black" />
    <path fill-rule="evenodd" clip-rule="evenodd"
        d="M35.8978 28.2445L34.7737 23.1662C35.0771 23.1251 35.3446 22.9708 35.5328 22.7473C35.755 22.8862 36.0171 22.9668 36.2978 22.9668H37.2625C37.5289 22.9668 37.7448 22.7509 37.7448 22.4845V20.5551C37.7448 20.2887 37.5289 20.0728 37.2625 20.0728H36.2978C36.0088 20.0728 35.7393 20.1583 35.5131 20.3051C35.2922 20.0554 34.9699 19.8975 34.6111 19.8975H31.7638C31.2522 19.8975 30.8144 20.2184 30.6401 20.6693H29.4968C28.8053 20.6693 28.2427 21.2319 28.2427 21.9234C28.2427 22.6149 28.8053 23.1775 29.4968 23.1775H31.9795V24.1495C31.9795 24.4159 32.1954 24.6318 32.4619 24.6318C32.7283 24.6318 32.9442 24.4159 32.9442 24.1495V23.1775H33.7883L34.9991 28.6481L32.7076 32.7295C32.4571 33.1738 31.985 33.4499 31.4749 33.4499H25.7545C25.515 31.4415 23.8027 29.879 21.7311 29.879C20.8144 29.879 19.9496 30.1776 19.23 30.7425L19.2272 30.7448C18.3705 31.4186 17.832 32.3855 17.7065 33.4499H16.7158C16.7787 29.9823 19.6191 27.1809 23.1012 27.1809H26.5228C26.7928 27.1809 27.0127 27.4008 27.0127 27.671V32.0028C27.0127 32.2692 27.2286 32.4852 27.495 32.4852H30.0616C31.1087 32.4852 32.0735 31.9158 32.5796 30.9995C32.8138 30.5756 32.938 30.0955 32.9384 29.6115L32.9408 28.009C32.9412 27.7426 32.7255 27.5263 32.459 27.5259H32.4585C32.1924 27.5259 31.9765 27.7414 31.9761 28.0075L31.9737 29.6103C31.9735 29.9321 31.891 30.2513 31.7353 30.533C31.3988 31.142 30.7575 31.5203 30.0616 31.5203H27.9774V27.6708C27.9774 27.4238 27.9152 27.1909 27.8061 26.9868C28.2395 26.7364 28.5319 26.2684 28.5319 25.7331C28.5319 24.9352 27.8826 24.2861 27.0849 24.2861H25.3243C25.1551 24.2861 24.9929 24.3155 24.842 24.369V20.1379C24.842 19.34 24.1927 18.6909 23.3949 18.6909H20.2833C18.0276 18.6909 16.1517 20.3471 15.8069 22.5071C15.7924 22.5531 15.7845 22.6019 15.7845 22.6525L15.7847 22.657L15.7849 22.6612C15.7619 22.8458 15.75 23.0337 15.75 23.2242V25.7333C15.75 26.4578 16.2853 27.0596 16.9811 27.1641L18.0492 28.2323C16.634 29.573 15.75 31.4689 15.75 33.5676V33.9322C15.75 34.1986 15.9659 34.4145 16.2323 34.4145H18.9431C18.9369 34.4456 18.9335 34.478 18.9335 34.511C18.9335 35.211 19.1925 35.8514 19.6191 36.3424H16.2323C15.9659 36.3424 15.75 36.5585 15.75 36.8247C15.75 37.0912 15.9659 37.3071 16.2323 37.3071H21.6753L21.6914 37.3076C21.7046 37.3081 21.7178 37.3086 21.7311 37.3086C23.2736 37.3086 24.5286 36.0536 24.5286 34.511C24.5286 34.478 24.5252 34.4456 24.519 34.4145H31.4749C32.2344 34.4145 32.9442 34.0505 33.389 33.4483H33.9999C33.8625 33.7826 33.7896 34.1428 33.7896 34.511C33.7896 35.211 34.0487 35.8514 34.4753 36.3424H28.2201C27.9536 36.3424 27.7377 36.5585 27.7377 36.8247C27.7377 37.0912 27.9536 37.3071 28.2201 37.3071H36.5314C36.5501 37.3077 36.5686 37.3086 36.5872 37.3086C38.1298 37.3086 39.3848 36.0536 39.3848 34.511C39.3848 34.1428 39.3119 33.7826 39.1745 33.4483H39.9636C40.23 33.4483 40.446 33.2324 40.446 32.966C40.446 30.42 38.4214 28.3378 35.8978 28.2445ZM25.3243 25.251H27.0849C27.3507 25.251 27.5672 25.4673 27.5672 25.7333C27.5672 25.9992 27.3507 26.2157 27.0849 26.2157H25.3243C25.0583 26.2157 24.842 25.9992 24.842 25.7333C24.842 25.4673 25.0583 25.251 25.3243 25.251ZM16.716 23.1649C16.7154 23.1846 16.7147 23.2044 16.7147 23.2242V25.7333C16.7147 25.9992 16.931 26.2157 17.1968 26.2157H17.1972H23.3948C23.6608 26.2157 23.8771 25.9992 23.8771 25.7333V20.1381C23.8771 19.8721 23.6608 19.6558 23.3948 19.6558H20.2833C18.6823 19.6558 17.3244 20.7154 16.8737 22.1704H21.995C22.2614 22.1704 22.4774 22.3863 22.4774 22.6527C22.4774 22.9191 22.2614 23.1351 21.995 23.1351H16.7169L16.716 23.1649ZM18.3616 27.1803H19.4654C19.2336 27.3126 19.01 27.4575 18.7948 27.6135L18.3616 27.1803ZM21.7497 36.3433C22.7517 36.3334 23.564 35.5154 23.564 34.511C23.564 34.478 23.5673 34.4456 23.5736 34.4145H19.8885C19.8948 34.4456 19.8981 34.478 19.8981 34.511C19.8981 35.503 20.6904 36.3128 21.6755 36.3424H21.7311C21.7346 36.3424 21.7381 36.3426 21.7417 36.3429L21.7497 36.3433ZM18.6799 33.4499C18.7993 32.6836 19.2018 31.9913 19.8233 31.5031C19.8249 31.5022 19.8262 31.5009 19.8277 31.4999C20.3752 31.0707 21.0333 30.8437 21.7311 30.8437C23.27 30.8437 24.5496 31.9751 24.7819 33.4499H18.6799ZM36.7801 21.0374H36.2978C36.0318 21.0374 35.8155 21.2539 35.8155 21.5198C35.8155 21.7858 36.0318 22.0021 36.2978 22.0021H36.7801V21.0374ZM29.2074 21.9234C29.2074 21.7638 29.3372 21.634 29.4968 21.634H30.5594V21.9731C30.5594 22.0553 30.5677 22.1353 30.5834 22.2128H29.4968C29.3372 22.2128 29.2074 22.083 29.2074 21.9234ZM31.7638 22.2128H32.4619H34.6111C34.7432 22.2128 34.8508 22.1054 34.8508 21.9731V21.1019C34.8508 20.9698 34.7432 20.8622 34.6111 20.8622H31.7638C31.6317 20.8622 31.5241 20.9698 31.5241 21.1019V21.9731C31.5241 22.1054 31.6317 22.2128 31.7638 22.2128ZM38.4201 34.511C38.4201 35.5154 37.6079 36.3334 36.6059 36.3433C36.5996 36.3432 36.5934 36.3424 36.5872 36.3424H36.5316C35.5466 36.3128 34.7543 35.503 34.7543 34.511C34.7543 34.1278 34.8738 33.7573 35.0938 33.4483H38.0806C38.3007 33.7573 38.4201 34.1278 38.4201 34.511ZM35.7912 29.2077L33.9518 32.4837H39.4504C39.216 30.66 37.6695 29.2422 35.7912 29.2077Z"
        fill="#495567" />
    <path
        d="M32.4618 26.5611C32.7282 26.5611 32.9441 26.3452 32.9441 26.0788C32.9441 25.8124 32.7282 25.5964 32.4618 25.5964H32.4601C32.1937 25.5964 31.9785 25.8124 31.9785 26.0788C31.9785 26.3452 32.1954 26.5611 32.4618 26.5611Z"
        fill="black" />
</svg>

<svg xmlns="http://www.w3.org/2000/svg" width="56" height="56" fill="none" viewBox="0 0 56 56">
    <circle cx="28" cy="28" r="28" fill="#fcb72b" />
    <path fill="#000"
        d="M26.29 36.342a.486.486 0 0 0-.481.483.486.486 0 0 0 .482.482.485.485 0 0 0 .341-.823.49.49 0 0 0-.341-.142" />
    <path fill="#495567" fill-rule="evenodd"
        d="m35.898 28.245-1.124-5.079c.303-.04.57-.195.759-.419.222.14.484.22.765.22h.965a.48.48 0 0 0 .482-.482v-1.93a.48.48 0 0 0-.482-.482h-.965c-.29 0-.559.085-.785.232a1.2 1.2 0 0 0-.902-.407h-2.847c-.512 0-.95.32-1.124.771h-1.143c-.692 0-1.254.563-1.254 1.254s.562 1.255 1.254 1.255h2.483v.971a.482.482 0 1 0 .964 0v-.972h.844L35 28.649l-2.291 4.082c-.25.444-.723.72-1.233.72h-5.72a4.06 4.06 0 0 0-4.024-3.571c-.917 0-1.781.299-2.501.863l-.003.003a4.03 4.03 0 0 0-1.52 2.705h-.991a6.394 6.394 0 0 1 6.385-6.27h3.422c.27 0 .49.22.49.491v4.332c0 .266.216.482.482.482h2.567a2.877 2.877 0 0 0 2.876-2.873l.003-1.603a.482.482 0 0 0-.965-.002l-.002 1.603a1.913 1.913 0 0 1-1.912 1.91h-2.085v-3.85c0-.246-.062-.48-.17-.683a1.448 1.448 0 0 0-.722-2.7h-1.76q-.256.001-.483.082v-4.231c0-.798-.65-1.447-1.447-1.447h-3.112a4.54 4.54 0 0 0-4.476 3.816.5.5 0 0 0-.023.145v.009a5 5 0 0 0-.034.563v2.51a1.45 1.45 0 0 0 1.231 1.43l1.068 1.068a7.33 7.33 0 0 0-2.299 5.336v.364c0 .267.216.482.482.482h2.711a.5.5 0 0 0-.01.097c0 .7.26 1.34.686 1.831h-3.387a.482.482 0 0 0 0 .965h5.459l.04.002a2.8 2.8 0 0 0 2.798-2.798.5.5 0 0 0-.01-.097h6.956c.76 0 1.47-.364 1.914-.966h.61a2.79 2.79 0 0 0 .476 2.894H28.22a.482.482 0 0 0 0 .965h8.311l.056.002a2.8 2.8 0 0 0 2.587-3.86h.79a.48.48 0 0 0 .482-.483 4.73 4.73 0 0 0-4.548-4.722M25.324 25.25h1.76a.483.483 0 0 1 0 .965h-1.76a.483.483 0 0 1 0-.965m-8.608-2.086-.001.06v2.508c0 .266.216.483.482.483h6.198a.483.483 0 0 0 .482-.483v-5.595a.483.483 0 0 0-.482-.482h-3.112a3.575 3.575 0 0 0-3.41 2.514h5.122a.482.482 0 1 1 0 .965h-5.278zm1.646 4.015h1.103a7 7 0 0 0-.67.433zm3.388 9.163a1.835 1.835 0 0 0 1.814-1.832q0-.05.01-.097h-3.686q.01.048.01.097c0 .992.792 1.802 1.777 1.831h.066zm-3.07-2.893a3.07 3.07 0 0 1 1.143-1.947q.002 0 .005-.003a3.06 3.06 0 0 1 1.903-.656 3.09 3.09 0 0 1 3.05 2.606zm18.1-12.413h-.482a.483.483 0 0 0 0 .965h.482zm-7.573.886c0-.16.13-.289.29-.289h1.062v.34q0 .122.024.239h-1.086a.29.29 0 0 1-.29-.29m2.557.29h2.848a.24.24 0 0 0 .239-.24v-.871a.24.24 0 0 0-.24-.24h-2.847a.24.24 0 0 0-.24.24v.871c0 .132.108.24.24.24M38.42 34.51a1.835 1.835 0 0 1-1.814 1.832h-.074a1.835 1.835 0 0 1-1.438-2.895h2.987c.22.31.34.68.34 1.063m-2.629-5.303-1.84 3.276h5.5a3.765 3.765 0 0 0-3.66-3.276"
        clip-rule="evenodd" />
    <path fill="#000" d="M32.462 26.561a.482.482 0 1 0 0-.965h-.002a.482.482 0 1 0 .002.965" />
</svg>
